X: 114104
Q: "Reel."
M: C
L: 1/8
K: F
uc |\
fcfa (3(fga) (gf) | ecgc acgc |
fcfg (3(fga) (gf) | cfeg f/f/f (fc) |\
fcfa (3(fga) (gf) | gfga baga |\
fdcB Acfd | cABG F/F/F F |]\
{F}"_Fine."F4 ||



